Newaita-dark/apps/48/gemini.svg

<svg height="48pt" viewBox="0 0 48 48" width="48pt" xmlns="http://www.w3.org/2000/svg" xmlns:xlink="http://www.w3.org/1999/xlink"><linearGradient id="a" gradientUnits="userSpaceOnUse" x1="46.637274" x2="46.637274" y1="42.0509045" y2="44.03547050005"><stop offset="0" stop-opacity=".27451"/><stop offset="1" stop-opacity="0"/></linearGradient><linearGradient id="b"><stop offset="0" stop-opacity=".313725"/><stop offset=".222222" stop-opacity=".27451"/><stop offset="1" stop-opacity="0"/></linearGradient><radialGradient id="c" cx="450.908936" cy="189.579361" gradientTransform="matrix(.00000026 -.117199 -.210958 -.00000015 76.211413 95.392999)" gradientUnits="userSpaceOnUse" r="21.166656" xlink:href="#b"/><radialGradient id="d" cx="450.908936" cy="189.579361" gradientTransform="matrix(-.00000026 .117199 .210958 .00000015 -10.720773 -11.291218)" gradientUnits="userSpaceOnUse" r="21.166656" xlink:href="#b"/><radialGradient id="e" cx="450.908936" cy="189.579361" gradientTransform="matrix(-.00000026 -.117199 .210958 -.00000015 -10.720773 95.392999)" gradientUnits="userSpaceOnUse" r="21.166656" xlink:href="#b"/><radialGradient id="f" cx="450.908936" cy="189.579361" gradientTransform="matrix(.00000026 .117199 -.210958 .00000015 76.21141 -11.291219)" gradientUnits="userSpaceOnUse" r="21.166656" xlink:href="#b"/><linearGradient id="g" gradientUnits="userSpaceOnUse" x1="19.845674" x2="19.845674" y1="42.05096580616" y2="4.34417306195"><stop offset="0" stop-color="#ff7043"/><stop offset="1" stop-color="#ff8a65"/></linearGradient><linearGradient id="h" gradientUnits="userSpaceOnUse" x1="19.845674" x2="19.845674" y1="42.05096580616" y2="4.34417306195"><stop offset="0" stop-color="#26c6da"/><stop offset="1" stop-color="#4dd0e1"/></linearGradient><linearGradient id="i" gradientUnits="userSpaceOnUse" x1="13.89197" x2="13.89197" y1="42.05096580616" y2="4.34417266504"><stop offset="0" stop-color="#424242"/><stop offset="1" stop-color="#616161"/></linearGradient><path d="m28.777344 42.050781h7.9375v1.984375h-7.9375zm0 0" fill="url(#a)"/><path d="m36.714844 42.050781h3.96875v-1.984375h-3.96875zm0 0" fill="url(#c)"/><path d="m28.777344 42.050781h-3.96875v1.984375h3.96875zm0 0" fill="url(#d)"/><path d="m28.777344 42.050781h-3.96875v-1.984375h3.96875zm0 0" fill="url(#e)"/><path d="m36.714844 42.050781h3.96875v1.984375h-3.96875zm0 0" fill="url(#f)"/><path d="m27.785156 4.34375c-10.996094 0-19.847656 7.964844-19.847656 17.863281v1.984375c0 9.894532 8.851562 17.859375 19.847656 17.859375h9.921875c.496094 0 .867188-.0625 1.148438-.171875.277343-.105468.464843-.261718.585937-.449218.125-.183594.1875-.402344.21875-.632813.03125-.234375.03125-.484375.03125-.730469 0-11.90625-21.210937-9.734375-21.832031-17.859375.078125-9.304687 21.832031-1.988281 21.832031-15.878906 0-.992187-.496094-1.984375-1.984375-1.984375zm0 0" fill="url(#g)"/><path d="m27.785156 4.34375c-10.996094 0-19.847656 7.964844-19.847656 17.863281v.097657c2.917969-.0625 6.300781-.097657 9.921875-.097657.078125-9.304687 21.832031-1.988281 21.832031-15.878906 0-.992187-.496094-1.984375-1.984375-1.984375zm0 0" fill="url(#h)"/><path d="m27.785156 4.34375c-10.996094 0-19.847656 7.964844-19.847656 17.863281v1.984375c0 9.894532 8.851562 17.859375 19.847656 17.859375h9.921875c-10.996093 0-19.847656-7.964843-19.847656-17.859375v-1.984375c0-9.898437 8.851563-17.863281 19.847656-17.863281zm0 0" fill="url(#i)"/><path d="m27.785156 4.203125c-11.0625 0-19.988281 8.023437-19.988281 18.003906v1.984375c0 9.976563 8.925781 18 19.988281 18h9.921875c.078125 0 .136719-.0625.136719-.140625s-.058594-.140625-.136719-.140625c-10.925781 0-19.707031-7.910156-19.707031-17.71875v-1.984375c0-9.8125 8.78125-17.722656 19.707031-17.722656.078125 0 .136719-.0625.136719-.140625s-.058594-.140625-.136719-.140625zm0 .28125h6.492188c-9.417969 1.460937-16.558594 8.800781-16.558594 17.722656v1.984375c0 8.921875 7.140625 16.261719 16.558594 17.71875h-6.492188c-10.929687 0-19.707031-7.910156-19.707031-17.71875v-1.984375c0-9.8125 8.777344-17.722656 19.707031-17.722656zm0 0" fill="#212121"/><path d="m27.789062 4.34375c-10.996093 0-19.847656 7.964844-19.847656 17.863281v.496094c0-9.898437 8.851563-17.863281 19.847656-17.863281h9.921876c1.410156 0 1.929687.890625 1.980468 1.828125.003906-.113281.003906-.222657.003906-.339844 0-.992187-.496093-1.984375-1.984374-1.984375zm-9.910156 18.007812c-.007812.113282-.011718.230469-.011718.351563.613281 8.078125 21.582031 5.976563 21.828124 17.652344 0-.09375 0-.191407 0-.289063 0-11.835937-20.953124-9.761718-21.816406-17.714844zm0 0" fill="#fff" fill-opacity=".392157"/><path d="m39.691406 6.171875c-.351562 13.433594-21.75 6.3125-21.824218 15.539063.003906.046874.007812.097656.011718.144531.617188-8.765625 21.816406-1.8125 21.816406-15.527344 0-.050781 0-.105469-.003906-.15625zm-31.75 17.523437v.496094c0 9.894532 8.851563 17.859375 19.847656 17.859375h9.921876c.496093 0 .867187-.0625 1.148437-.171875.277344-.105468.464844-.261718.589844-.449218.121093-.183594.183593-.402344.214843-.632813.03125-.234375.03125-.484375.03125-.730469 0-.070312 0-.136718 0-.207031-.003906.148437-.011718.296875-.03125.441406-.03125.230469-.09375.449219-.214843.632813-.125.1875-.3125.34375-.589844.449218-.28125.109376-.652344.171876-1.148437.171876h-9.921876c-10.996093 0-19.847656-7.964844-19.847656-17.859376zm0 0" fill-opacity=".235294"/><path d="m793.756436-168.671091c-117.280467 0-211.688119 84.950221-211.688119 190.523473v21.164645c0 105.531589 94.407652 190.48181 211.688119 190.48181h105.823227c5.291162 0 9.249117-.666603 12.248831-1.833158 2.95805-1.124893 4.957859-2.7914 6.291065-4.791209 1.291544-1.958147 1.958147-4.291257 2.291448-6.749356.333302-2.499761.333302-5.166173.333302-7.790922 0-126.987874-226.228397-103.823419-232.811101-190.48181.791591-99.240523 232.811101-21.206309 232.811101-169.358827 0-10.582323-5.291162-21.164646-21.164646-21.164646zm0 0" fill="none" stroke="#212121" stroke-linecap="round" stroke-linejoin="round" stroke-width="3" transform="matrix(.093759 0 0 .093759 -46.63271 20.158175)"/></svg>

<?xml version="1.0" encoding="UTF-8"?>
<svg xmlns="http://www.w3.org/2000/svg" xmlns:xlink="http://www.w3.org/1999/xlink" width="48pt" height="48pt" viewBox="0 0 48 48" version="1.1">
<defs>
<linearGradient id="linear0" gradientUnits="userSpaceOnUse" x1="254" y1="233.5" x2="254" y2="254.666672" gradientTransform="matrix(0.093759,0,0,0.093759,22.822488,20.158178)">
<stop offset="0" style="stop-color:rgb(0%,0%,0%);stop-opacity:0.27451;"/>
<stop offset="1" style="stop-color:rgb(0%,0%,0%);stop-opacity:0;"/>
</linearGradient>
<radialGradient id="radial0" gradientUnits="userSpaceOnUse" cx="450.908936" cy="189.579361" fx="450.908936" fy="189.579361" r="21.166656" gradientTransform="matrix(0.000000261256,-0.117199,-0.210958,-0.000000152308,76.211413,95.392999)">
<stop offset="0" style="stop-color:rgb(0%,0%,0%);stop-opacity:0.313725;"/>
<stop offset="0.222222" style="stop-color:rgb(0%,0%,0%);stop-opacity:0.27451;"/>
<stop offset="1" style="stop-color:rgb(0%,0%,0%);stop-opacity:0;"/>
</radialGradient>
<radialGradient id="radial1" gradientUnits="userSpaceOnUse" cx="450.908936" cy="189.579361" fx="450.908936" fy="189.579361" r="21.166656" gradientTransform="matrix(-0.000000261256,0.117199,0.210958,0.000000152308,-10.720773,-11.291218)">
<stop offset="0" style="stop-color:rgb(0%,0%,0%);stop-opacity:0.313725;"/>
<stop offset="0.222222" style="stop-color:rgb(0%,0%,0%);stop-opacity:0.27451;"/>
<stop offset="1" style="stop-color:rgb(0%,0%,0%);stop-opacity:0;"/>
</radialGradient>
<radialGradient id="radial2" gradientUnits="userSpaceOnUse" cx="450.908936" cy="189.579361" fx="450.908936" fy="189.579361" r="21.166656" gradientTransform="matrix(-0.000000261256,-0.117199,0.210958,-0.000000152308,-10.720773,95.392999)">
<stop offset="0" style="stop-color:rgb(0%,0%,0%);stop-opacity:0.313725;"/>
<stop offset="0.222222" style="stop-color:rgb(0%,0%,0%);stop-opacity:0.27451;"/>
<stop offset="1" style="stop-color:rgb(0%,0%,0%);stop-opacity:0;"/>
</radialGradient>
<radialGradient id="radial3" gradientUnits="userSpaceOnUse" cx="450.908936" cy="189.579361" fx="450.908936" fy="189.579361" r="21.166656" gradientTransform="matrix(0.000000261256,0.117199,-0.210958,0.000000152308,76.21141,-11.291219)">
<stop offset="0" style="stop-color:rgb(0%,0%,0%);stop-opacity:0.313725;"/>
<stop offset="0.222222" style="stop-color:rgb(0%,0%,0%);stop-opacity:0.27451;"/>
<stop offset="1" style="stop-color:rgb(0%,0%,0%);stop-opacity:0;"/>
</radialGradient>
<linearGradient id="linear1" gradientUnits="userSpaceOnUse" x1="640" y1="1695.118164" x2="640" y2="175.118134" gradientTransform="matrix(0.0248071,0,0,0.0248071,3.96913,0.00000000000000282)">
<stop offset="0" style="stop-color:rgb(100%,43.921569%,26.27451%);stop-opacity:1;"/>
<stop offset="1" style="stop-color:rgb(100%,54.117647%,39.607843%);stop-opacity:1;"/>
</linearGradient>
<linearGradient id="linear2" gradientUnits="userSpaceOnUse" x1="640" y1="1695.118164" x2="640" y2="175.118134" gradientTransform="matrix(0.0248071,0,0,0.0248071,3.96913,0.00000000000000282)">
<stop offset="0" style="stop-color:rgb(14.901961%,77.647059%,85.490196%);stop-opacity:1;"/>
<stop offset="1" style="stop-color:rgb(30.196078%,81.568627%,88.235294%);stop-opacity:1;"/>
</linearGradient>
<linearGradient id="linear3" gradientUnits="userSpaceOnUse" x1="400" y1="1695.118164" x2="400" y2="175.118118" gradientTransform="matrix(0.0248071,0,0,0.0248071,3.96913,0.00000000000000282)">
<stop offset="0" style="stop-color:rgb(25.882353%,25.882353%,25.882353%);stop-opacity:1;"/>
<stop offset="1" style="stop-color:rgb(38.039216%,38.039216%,38.039216%);stop-opacity:1;"/>
</linearGradient>
</defs>
<g id="surface1">
<path style=" stroke:none;fill-rule:nonzero;fill:url(#linear0);" d="M 28.777344 42.050781 L 36.714844 42.050781 L 36.714844 44.035156 L 28.777344 44.035156 Z M 28.777344 42.050781 "/>
<path style=" stroke:none;fill-rule:nonzero;fill:url(#radial0);" d="M 36.714844 42.050781 L 40.683594 42.050781 L 40.683594 40.066406 L 36.714844 40.066406 Z M 36.714844 42.050781 "/>
<path style=" stroke:none;fill-rule:nonzero;fill:url(#radial1);" d="M 28.777344 42.050781 L 24.808594 42.050781 L 24.808594 44.035156 L 28.777344 44.035156 Z M 28.777344 42.050781 "/>
<path style=" stroke:none;fill-rule:nonzero;fill:url(#radial2);" d="M 28.777344 42.050781 L 24.808594 42.050781 L 24.808594 40.066406 L 28.777344 40.066406 Z M 28.777344 42.050781 "/>
<path style=" stroke:none;fill-rule:nonzero;fill:url(#radial3);" d="M 36.714844 42.050781 L 40.683594 42.050781 L 40.683594 44.035156 L 36.714844 44.035156 Z M 36.714844 42.050781 "/>
<path style=" stroke:none;fill-rule:nonzero;fill:url(#linear1);" d="M 27.785156 4.34375 C 16.789062 4.34375 7.9375 12.308594 7.9375 22.207031 L 7.9375 24.191406 C 7.9375 34.085938 16.789062 42.050781 27.785156 42.050781 L 37.707031 42.050781 C 38.203125 42.050781 38.574219 41.988281 38.855469 41.878906 C 39.132812 41.773438 39.320312 41.617188 39.441406 41.429688 C 39.566406 41.246094 39.628906 41.027344 39.660156 40.796875 C 39.691406 40.5625 39.691406 40.3125 39.691406 40.066406 C 39.691406 28.160156 18.480469 30.332031 17.859375 22.207031 C 17.9375 12.902344 39.691406 20.21875 39.691406 6.328125 C 39.691406 5.335938 39.195312 4.34375 37.707031 4.34375 Z M 27.785156 4.34375 "/>
<path style=" stroke:none;fill-rule:nonzero;fill:url(#linear2);" d="M 27.785156 4.34375 C 16.789062 4.34375 7.9375 12.308594 7.9375 22.207031 L 7.9375 22.304688 C 10.855469 22.242188 14.238281 22.207031 17.859375 22.207031 C 17.9375 12.902344 39.691406 20.21875 39.691406 6.328125 C 39.691406 5.335938 39.195312 4.34375 37.707031 4.34375 Z M 27.785156 4.34375 "/>
<path style=" stroke:none;fill-rule:nonzero;fill:url(#linear3);" d="M 27.785156 4.34375 C 16.789062 4.34375 7.9375 12.308594 7.9375 22.207031 L 7.9375 24.191406 C 7.9375 34.085938 16.789062 42.050781 27.785156 42.050781 L 37.707031 42.050781 C 26.710938 42.050781 17.859375 34.085938 17.859375 24.191406 L 17.859375 22.207031 C 17.859375 12.308594 26.710938 4.34375 37.707031 4.34375 Z M 27.785156 4.34375 "/>
<path style=" stroke:none;fill-rule:nonzero;fill:rgb(12.941177%,12.941177%,12.941177%);fill-opacity:1;" d="M 27.785156 4.203125 C 16.722656 4.203125 7.796875 12.226562 7.796875 22.207031 L 7.796875 24.191406 C 7.796875 34.167969 16.722656 42.191406 27.785156 42.191406 L 37.707031 42.191406 C 37.785156 42.191406 37.84375 42.128906 37.84375 42.050781 C 37.84375 41.972656 37.785156 41.910156 37.707031 41.910156 C 26.78125 41.910156 18 34 18 24.191406 L 18 22.207031 C 18 12.394531 26.78125 4.484375 37.707031 4.484375 C 37.785156 4.484375 37.84375 4.421875 37.84375 4.34375 C 37.84375 4.265625 37.785156 4.203125 37.707031 4.203125 Z M 27.785156 4.484375 L 34.277344 4.484375 C 24.859375 5.945312 17.71875 13.285156 17.71875 22.207031 L 17.71875 24.191406 C 17.71875 33.113281 24.859375 40.453125 34.277344 41.910156 L 27.785156 41.910156 C 16.855469 41.910156 8.078125 34 8.078125 24.191406 L 8.078125 22.207031 C 8.078125 12.394531 16.855469 4.484375 27.785156 4.484375 Z M 27.785156 4.484375 "/>
<path style=" stroke:none;fill-rule:nonzero;fill:rgb(100%,100%,100%);fill-opacity:0.392157;" d="M 27.789062 4.34375 C 16.792969 4.34375 7.941406 12.308594 7.941406 22.207031 L 7.941406 22.703125 C 7.941406 12.804688 16.792969 4.839844 27.789062 4.839844 L 37.710938 4.839844 C 39.121094 4.839844 39.640625 5.730469 39.691406 6.667969 C 39.695312 6.554688 39.695312 6.445312 39.695312 6.328125 C 39.695312 5.335938 39.199219 4.34375 37.710938 4.34375 Z M 17.878906 22.351562 C 17.871094 22.464844 17.867188 22.582031 17.867188 22.703125 C 18.480469 30.78125 39.449219 28.679688 39.695312 40.355469 C 39.695312 40.261719 39.695312 40.164062 39.695312 40.066406 C 39.695312 28.230469 18.742188 30.304688 17.878906 22.351562 Z M 17.878906 22.351562 "/>
<path style=" stroke:none;fill-rule:nonzero;fill:rgb(0%,0%,0%);fill-opacity:0.235294;" d="M 39.691406 6.171875 C 39.339844 19.605469 17.941406 12.484375 17.867188 21.710938 C 17.871094 21.757812 17.875 21.808594 17.878906 21.855469 C 18.496094 13.089844 39.695312 20.042969 39.695312 6.328125 C 39.695312 6.277344 39.695312 6.222656 39.691406 6.171875 Z M 7.941406 23.695312 L 7.941406 24.191406 C 7.941406 34.085938 16.792969 42.050781 27.789062 42.050781 L 37.710938 42.050781 C 38.207031 42.050781 38.578125 41.988281 38.859375 41.878906 C 39.136719 41.773438 39.324219 41.617188 39.449219 41.429688 C 39.570312 41.246094 39.632812 41.027344 39.664062 40.796875 C 39.695312 40.5625 39.695312 40.3125 39.695312 40.066406 C 39.695312 39.996094 39.695312 39.929688 39.695312 39.859375 C 39.691406 40.007812 39.683594 40.15625 39.664062 40.300781 C 39.632812 40.53125 39.570312 40.75 39.449219 40.933594 C 39.324219 41.121094 39.136719 41.277344 38.859375 41.382812 C 38.578125 41.492188 38.207031 41.554688 37.710938 41.554688 L 27.789062 41.554688 C 16.792969 41.554688 7.941406 33.589844 7.941406 23.695312 Z M 7.941406 23.695312 "/>
<path style="fill:none;stroke-width:3;stroke-linecap:round;stroke-linejoin:round;stroke:rgb(12.941177%,12.941177%,12.941177%);stroke-opacity:1;stroke-miterlimit:4;" d="M 793.756436 -168.671091 C 676.475969 -168.671091 582.068317 -83.72087 582.068317 21.852382 L 582.068317 43.017027 C 582.068317 148.548616 676.475969 233.498837 793.756436 233.498837 L 899.579663 233.498837 C 904.870825 233.498837 908.82878 232.832234 911.828494 231.665679 C 914.786544 230.540786 916.786353 228.874279 918.119559 226.87447 C 919.411103 224.916323 920.077706 222.583213 920.411007 220.125114 C 920.744309 217.625353 920.744309 214.958941 920.744309 212.334192 C 920.744309 85.346318 694.515912 108.510773 687.933208 21.852382 C 688.724799 -77.388141 920.744309 0.646073 920.744309 -147.506445 C 920.744309 -158.088768 915.453147 -168.671091 899.579663 -168.671091 Z M 793.756436 -168.671091 " transform="matrix(0.093759,0,0,0.093759,-46.63271,20.158175)"/>
</g>
</svg>
